X:749
T:Tell Her I Am
M:6/8
L:1/8
B:O'Neill's 749
R:Jig
Z:"Transcribed by Bob Safranek, rjs@gsp.org"
N:"Collected by Delaney"
K:G
d|edB    GAB|DED GAB|DED cBA|BGE E2 d|
edB    GAB|DED GAB|AGE cBA|BGG G2  :|
|: d|B/c/dB def|gfe dBG|ABA AGA|BGE E2 d|
Bcd    def|agfe dBG|AGE cBA|BGG G2  :|
